img/pic_elderly.svg

<svg width="240" height="240" viewBox="0 0 240 240" fill="none" xmlns="http://www.w3.org/2000/svg">
<g clip-path="url(#clip0)">
<path fill-rule="evenodd" clip-rule="evenodd" d="M207.665 227.93H129.99V319.382L165.94 317.615L169.81 260.017L173.544 317.701L207.665 319.382V227.93Z" fill="#67DCFF"/>
<path fill-rule="evenodd" clip-rule="evenodd" d="M142.055 92.0053C141.996 93.7096 143.815 95.6578 145.516 95.7729C154.802 96.4007 188.432 96.4007 197.768 95.7729C199.539 95.6538 201.715 93.7703 201.53 92.0053C200.598 83.1195 198.302 54.8437 193.389 43.6693C192.734 42.1813 187.106 27.467 169.587 28.5316C157.801 29.248 151.18 37.5611 148.579 43.0806C142.028 56.9801 142.363 83.0214 142.055 92.0053Z" fill="#00325B"/>
<path fill-rule="evenodd" clip-rule="evenodd" d="M224.812 142.09H207.664L207.774 195.243H224.812V142.09Z" fill="#EECAC5"/>
<path d="M132.113 142.09H114.965V219.865H132.113V142.09Z" fill="#EEC8C3"/>
<path fill-rule="evenodd" clip-rule="evenodd" d="M170.785 64.8633C175.604 64.8633 179.547 73.7918 179.547 84.705V100.82C179.547 111.733 175.604 120.661 170.785 120.661C165.966 120.661 162.023 111.733 162.023 100.82V84.705C162.023 73.7918 165.966 64.8633 170.785 64.8633Z" fill="#EECAC5"/>
<path fill-rule="evenodd" clip-rule="evenodd" d="M192.54 62.5801C192.671 62.5987 192.799 62.6207 192.926 62.6484L192.931 62.6496L192.93 62.6491C195.282 63.159 197.056 65.2375 197.087 67.7464C197.121 70.662 194.786 73.0549 191.87 73.0895C188.954 73.1243 186.561 70.7891 186.526 67.8742C186.505 66.1787 187.285 64.6611 188.515 63.6808C188.37 65.2387 188.604 67.1692 190.592 67.3765L190.556 64.3318C190.541 63.0988 191.695 62.5402 192.54 62.5801Z" fill="#F1D2CE"/>
<path fill-rule="evenodd" clip-rule="evenodd" d="M170.816 93.2242C161.883 93.2242 149.165 80.0947 149.165 68.5954V51.8833C149.165 39.976 158.909 30.2344 170.814 30.2344H170.816C182.721 30.2344 192.465 39.976 192.465 51.8833V68.2716C192.465 80.8749 179.426 93.2242 170.816 93.2242Z" fill="#F1D2CE"/>
<path fill-rule="evenodd" clip-rule="evenodd" d="M192.183 64.9476C192.183 64.9476 185.615 52.9641 185.06 48.0624C184.917 46.8034 185.028 45.4346 185.534 43.9822C188.007 36.8736 188.493 37.5779 188.493 37.5779C188.493 37.5779 197.769 41.756 193.64 60.5968L192.183 64.9476Z" fill="#00325B"/>
<path fill-rule="evenodd" clip-rule="evenodd" d="M145.873 66.2429C145.873 66.2429 169.024 60.8726 187.809 51.2361C187.809 51.2361 190.251 45.0493 193.391 43.6645C193.391 43.6645 187.108 27.4622 169.589 28.5268C157.803 29.2432 150.238 37.2031 148.581 43.0758C147.66 46.3422 145.873 66.2429 145.873 66.2429Z" fill="#00325B"/>
<path fill-rule="evenodd" clip-rule="evenodd" d="M133.806 228.407V153.589L112.515 153.525C112.515 153.525 113.138 144.528 115.87 133.737C117.394 127.719 119.549 119.951 121.247 116.435C123.533 111.696 127.176 110.046 129.367 108.793C131.042 107.835 134.186 106.523 134.186 106.523L142.055 103.212L162.023 96.2695C162.023 96.2695 163.107 103.521 170.836 103.614L171.016 103.61C178.621 103.392 179.548 96.2695 179.548 96.2695L195.412 101.406L204.626 105.284C204.626 105.284 207.77 106.596 209.445 107.554C211.636 108.807 215.279 110.457 217.566 115.196C219.263 118.713 221.418 126.48 222.942 132.499C225.674 143.289 227.102 153.525 227.102 153.525L206.517 153.596L205.41 147.097V228.407H133.806Z" fill="#E2F7FF"/>
<path fill-rule="evenodd" clip-rule="evenodd" d="M183.743 97.7508C181.121 103.1 178.104 107.534 170.889 107.534C165.06 107.534 161.415 104.383 158.009 97.6876L162.024 96.2695C162.024 96.2695 163.133 103.521 170.862 103.614L171.042 103.61C178.647 103.392 179.549 96.2695 179.549 96.2695L183.743 97.7508Z" fill="#BCEEFF"/>
<path fill-rule="evenodd" clip-rule="evenodd" d="M224.812 195.22L208.248 190.781L202.474 244.262L211.055 246.562L224.812 195.22Z" fill="#EECAC5"/>
<path d="M20.859 154.336H12.1765V268.134H20.859V154.336Z" fill="#BFBFBF"/>
<path d="M150.34 154.336H141.658V268.134H150.34V154.336Z" fill="#BFBFBF"/>
<path fill-rule="evenodd" clip-rule="evenodd" d="M149.965 292.124V174.023H12.1765V292.124H149.965Z" fill="#BFBFBF"/>
<path d="M146.718 209.59H126.46V272.379H146.718V209.59Z" fill="#EECAC5"/>
<path d="M35.3273 209.59H15.0696V272.379H35.3273V209.59Z" fill="#EECAC5"/>
<path fill-rule="evenodd" clip-rule="evenodd" d="M81.0115 118.359C88.3927 118.359 94.4322 128.906 94.4322 141.798V160.834C94.4322 173.726 88.3927 184.273 81.0115 184.273C73.631 184.273 67.5916 173.726 67.5916 160.834V141.798C67.5916 128.906 73.631 118.359 81.0115 118.359Z" fill="#EECAC5"/>
<path fill-rule="evenodd" clip-rule="evenodd" d="M106.71 115.725C106.864 115.747 107.016 115.773 107.167 115.806L107.172 115.807L107.17 115.807C109.949 116.409 112.045 118.864 112.081 121.828C112.122 125.272 109.363 128.099 105.919 128.14C102.474 128.181 99.6475 125.422 99.6062 121.979C99.5809 119.976 100.503 118.183 101.956 117.025C101.784 118.866 102.061 121.146 104.41 121.391L104.366 117.794C104.349 116.338 105.712 115.678 106.71 115.725Z" fill="#F1D2CE"/>
<path fill-rule="evenodd" clip-rule="evenodd" d="M56.6615 115.665C56.5067 115.685 56.3551 115.709 56.2042 115.739L56.1994 115.741V115.74C53.4132 116.304 51.2841 118.73 51.2057 121.692C51.1169 125.136 53.8374 128.001 57.28 128.09C60.7238 128.179 63.5885 125.459 63.6776 122.017C63.7304 120.015 62.8337 118.209 61.397 117.031C61.5436 118.873 61.2341 121.15 58.8829 121.362L58.976 117.766C59.014 116.311 57.6604 115.632 56.6615 115.665Z" fill="#F1D2CE"/>
<path fill-rule="evenodd" clip-rule="evenodd" d="M81.0466 151.87C70.4933 151.87 55.47 136.361 55.47 122.777V103.035C55.47 88.9688 66.9807 77.4609 81.0437 77.4609H81.0466C95.1096 77.4609 106.62 88.9688 106.62 103.035V122.394C106.62 137.282 91.2166 151.87 81.0466 151.87Z" fill="#F1D2CE"/>
<path fill-rule="evenodd" clip-rule="evenodd" d="M55.5665 118.487C55.5665 118.487 66.3443 102.117 63.4218 93.7207C60.5005 85.3236 59.9276 86.1556 59.9276 86.1556C59.9276 86.1556 48.9683 91.0912 53.8464 113.348L55.5665 118.487Z" fill="#CCCCCC"/>
<path fill-rule="evenodd" clip-rule="evenodd" d="M106.287 118.487C106.287 118.487 98.5279 104.331 97.8717 98.5408C97.7031 97.0537 97.8347 95.4365 98.4317 93.7207C101.353 85.3236 101.927 86.1556 101.927 86.1556C101.927 86.1556 112.885 91.0912 108.008 113.348L106.287 118.487Z" fill="#CCCCCC"/>
<path fill-rule="evenodd" clip-rule="evenodd" d="M59.2256 100.872C59.2256 100.872 62.0106 101.951 72.5682 100.608C78.7998 99.8142 87.3508 98.3799 97.8045 96.5435C102.855 95.6564 106.791 93.7528 107.714 93.3457C107.714 93.3457 105.464 87.985 100.434 82.9548C95.4033 77.9245 91.708 79.4106 91.708 79.4106C91.708 79.4106 89.361 74.8702 79.5967 75.4636C65.6739 76.3097 56.7373 85.713 54.7805 92.65C53.692 96.5089 59.2256 100.872 59.2256 100.872Z" fill="#CCCCCC"/>
<path fill-rule="evenodd" clip-rule="evenodd" d="M96.9276 155.139C95.5163 162.653 88.9097 168.336 80.9861 168.336C73.251 168.336 66.7707 162.919 65.1636 155.67L67.0306 155.085C67.0306 155.085 71.3589 163.962 80.5386 164.145C89.9738 164.333 94.4452 154.277 94.4452 154.277L96.9276 155.139Z" fill="#004E8E"/>
<path fill-rule="evenodd" clip-rule="evenodd" d="M37.328 272.378V223.159L12.1765 223.084C12.1765 223.084 12.4638 209.813 15.6913 197.067C17.4916 189.957 20.0378 180.781 22.0425 176.627C24.7439 171.029 29.0472 169.081 31.6351 167.6C33.6139 166.468 37.328 164.919 37.328 164.919L46.3809 161.776L67.6117 154.277C67.6117 154.277 71.9413 164.014 81.0708 164.124L81.2839 164.12C90.2677 163.863 94.53 154.277 94.53 154.277L115.761 161.776L124.814 164.919C124.814 164.919 128.528 166.468 130.507 167.6C133.094 169.081 137.398 171.029 140.099 176.627C142.104 180.781 144.65 189.957 146.45 197.067C149.678 209.813 149.965 223.084 149.965 223.084L124.814 223.159V272.378H37.328Z" fill="#CAF1FF"/>
<path fill-rule="evenodd" clip-rule="evenodd" d="M99.5163 156.027C96.4192 162.346 89.6581 168.754 81.1347 168.754C74.2482 168.754 66.9245 163.862 62.9004 155.952L67.6433 154.277C67.6433 154.277 71.9729 164.014 81.1024 164.124L81.3154 164.12C90.2993 163.863 94.5615 154.277 94.5615 154.277L99.5163 156.027Z" fill="#CAF1FF"/>
<path fill-rule="evenodd" clip-rule="evenodd" d="M96.7948 137.032C96.7948 132.127 92.8127 128.145 87.9076 128.145H74.1792C69.2741 128.145 65.2917 132.127 65.2917 137.032H96.7948Z" fill="#CCCCCC"/>
<path fill-rule="evenodd" clip-rule="evenodd" d="M67.3586 151.992L59.1064 157.139L74.8633 170.991L81.0131 163.995L67.3586 151.992Z" fill="#92E4FF"/>
<path fill-rule="evenodd" clip-rule="evenodd" d="M94.8617 151.992L103.114 157.139L87.357 170.991L81.2073 163.995L94.8617 151.992Z" fill="#92E4FF"/>
</g>
<defs>
<clipPath id="clip0">
<rect width="240" height="240" fill="white"/>
</clipPath>
</defs>
</svg>

<svg width="240" height="240" fill="none" xmlns="http://www.w3.org/2000/svg"><g clip-path="url(#clip0)"><path fill-rule="evenodd" clip-rule="evenodd" d="M207.665 227.93H129.99v91.452l35.95-1.767 3.87-57.598 3.734 57.684 34.121 1.681V227.93z" fill="#67DCFF"/><path fill-rule="evenodd" clip-rule="evenodd" d="M142.055 92.005c-.059 1.705 1.76 3.653 3.461 3.768 9.286.628 42.916.628 52.252 0 1.771-.12 3.947-2.003 3.762-3.768-.932-8.885-3.228-37.161-8.141-48.336-.655-1.488-6.283-16.202-23.802-15.137-11.786.716-18.407 9.03-21.008 14.549-6.551 13.9-6.216 39.94-6.524 48.924z" fill="#00325B"/><path fill-rule="evenodd" clip-rule="evenodd" d="M224.812 142.09h-17.148l.11 53.153h17.038V142.09z" fill="#EECAC5"/><path d="M132.113 142.09h-17.148v77.775h17.148V142.09z" fill="#EEC8C3"/><path fill-rule="evenodd" clip-rule="evenodd" d="M170.785 64.863c4.819 0 8.762 8.929 8.762 19.842v16.115c0 10.913-3.943 19.841-8.762 19.841-4.819 0-8.762-8.928-8.762-19.841V84.705c0-10.913 3.943-19.842 8.762-19.842z" fill="#EECAC5"/><path fill-rule="evenodd" clip-rule="evenodd" d="M192.54 62.58c.131.019.259.04.386.068l.005.002h-.001a5.281 5.281 0 11-4.415 1.032c-.145 1.557.089 3.487 2.077 3.694l-.036-3.044c-.015-1.233 1.139-1.792 1.984-1.752z" fill="#F1D2CE"/><path fill-rule="evenodd" clip-rule="evenodd" d="M170.816 93.224c-8.933 0-21.651-13.13-21.651-24.629V51.883c0-11.907 9.744-21.649 21.649-21.649h.002c11.905 0 21.649 9.742 21.649 21.65v16.388c0 12.603-13.039 24.952-21.649 24.952z" fill="#F1D2CE"/><path fill-rule="evenodd" clip-rule="evenodd" d="M192.183 64.948s-6.568-11.984-7.123-16.886a9.133 9.133 0 01.474-4.08c2.473-7.108 2.959-6.404 2.959-6.404s9.276 4.178 5.147 23.019l-1.457 4.35z" fill="#00325B"/><path fill-rule="evenodd" clip-rule="evenodd" d="M145.873 66.243s23.151-5.37 41.936-15.007c0 0 2.442-6.187 5.582-7.572 0 0-6.283-16.202-23.802-15.137-11.786.716-19.351 8.676-21.008 14.549-.921 3.266-2.708 23.167-2.708 23.167z" fill="#00325B"/><path fill-rule="evenodd" clip-rule="evenodd" d="M133.806 228.407v-74.818l-21.291-.064s.623-8.997 3.355-19.788c1.524-6.018 3.679-13.786 5.377-17.302 2.286-4.739 5.929-6.389 8.12-7.642 1.675-.958 4.819-2.27 4.819-2.27l7.869-3.311 19.968-6.943s1.084 7.252 8.813 7.345l.18-.004c7.605-.218 8.532-7.34 8.532-7.34l15.864 5.136 9.214 3.878s3.144 1.312 4.819 2.27c2.191 1.253 5.834 2.903 8.121 7.642 1.697 3.517 3.852 11.284 5.376 17.303 2.732 10.79 4.16 21.026 4.16 21.026l-20.585.071-1.107-6.499v81.31h-71.604z" fill="#E2F7FF"/><path fill-rule="evenodd" clip-rule="evenodd" d="M183.743 97.75c-2.622 5.35-5.639 9.784-12.854 9.784-5.829 0-9.474-3.151-12.88-9.846l4.015-1.419s1.109 7.252 8.838 7.345l.18-.004c7.605-.218 8.507-7.34 8.507-7.34l4.194 1.48z" fill="#BCEEFF"/><path fill-rule="evenodd" clip-rule="evenodd" d="M224.812 195.22l-16.564-4.439-5.774 53.481 8.581 2.3 13.757-51.342z" fill="#EECAC5"/><path d="M20.859 154.336h-8.683v113.798h8.683V154.336zm129.481 0h-8.682v113.798h8.682V154.336z" fill="#BFBFBF"/><path fill-rule="evenodd" clip-rule="evenodd" d="M149.965 292.124V174.023H12.177v118.101h137.788z" fill="#BFBFBF"/><path d="M146.718 209.59H126.46v62.789h20.258V209.59zm-111.391 0H15.07v62.789h20.257V209.59z" fill="#EECAC5"/><path fill-rule="evenodd" clip-rule="evenodd" d="M81.011 118.359c7.382 0 13.421 10.547 13.421 23.439v19.036c0 12.892-6.04 23.439-13.42 23.439-7.381 0-13.42-10.547-13.42-23.439v-19.036c0-12.892 6.039-23.439 13.42-23.439z" fill="#EECAC5"/><path fill-rule="evenodd" clip-rule="evenodd" d="M106.71 115.725c.154.022.306.048.457.081l.005.001h-.002a6.24 6.24 0 01-1.251 12.333 6.238 6.238 0 01-3.963-11.115c-.172 1.841.105 4.121 2.454 4.366l-.044-3.597c-.017-1.456 1.346-2.116 2.344-2.069zm-50.049-.06c-.154.02-.306.044-.457.074l-.005.002v-.001a6.24 6.24 0 001.08 12.35 6.238 6.238 0 004.118-11.059c.147 1.842-.163 4.119-2.514 4.331l.093-3.596c.038-1.455-1.316-2.134-2.315-2.101z" fill="#F1D2CE"/><path fill-rule="evenodd" clip-rule="evenodd" d="M81.047 151.87c-10.554 0-25.577-15.509-25.577-29.093v-19.742c0-14.066 11.51-25.574 25.574-25.574h.003c14.063 0 25.573 11.508 25.573 25.574v19.359c0 14.888-15.403 29.476-25.573 29.476z" fill="#F1D2CE"/><path fill-rule="evenodd" clip-rule="evenodd" d="M55.566 118.487s10.778-16.37 7.856-24.766c-2.921-8.397-3.494-7.565-3.494-7.565s-10.96 4.935-6.082 27.192l1.72 5.139zm50.721 0s-7.76-14.156-8.415-19.946c-.169-1.487-.037-3.105.56-4.82 2.921-8.397 3.495-7.565 3.495-7.565s10.958 4.935 6.081 27.192l-1.721 5.139z" fill="#CCC"/><path fill-rule="evenodd" clip-rule="evenodd" d="M59.226 100.872s2.785 1.079 13.342-.264c6.232-.794 14.783-2.228 25.237-4.065 5.05-.887 8.986-2.79 9.909-3.197 0 0-2.25-5.361-7.28-10.391s-8.726-3.544-8.726-3.544-2.347-4.54-12.111-3.947c-13.923.846-22.86 10.249-24.816 17.186-1.089 3.859 4.445 8.222 4.445 8.222z" fill="#CCC"/><path fill-rule="evenodd" clip-rule="evenodd" d="M96.928 155.139c-1.412 7.514-8.018 13.197-15.942 13.197-7.735 0-14.215-5.417-15.822-12.666l1.867-.585s4.328 8.877 13.508 9.06c9.435.188 13.906-9.868 13.906-9.868l2.483.862z" fill="#004E8E"/><path fill-rule="evenodd" clip-rule="evenodd" d="M37.328 272.378v-49.219l-25.152-.075s.288-13.271 3.515-26.017c1.8-7.11 4.347-16.286 6.351-20.44 2.702-5.598 7.005-7.546 9.593-9.027 1.979-1.132 5.693-2.681 5.693-2.681l9.053-3.143 21.23-7.499s4.33 9.737 13.46 9.847l.213-.004c8.984-.257 13.246-9.843 13.246-9.843l21.231 7.499 9.053 3.143s3.714 1.549 5.693 2.681c2.587 1.481 6.891 3.429 9.592 9.027 2.005 4.154 4.551 13.33 6.351 20.44 3.228 12.746 3.515 26.017 3.515 26.017l-25.151.075v49.219H37.328z" fill="#CAF1FF"/><path fill-rule="evenodd" clip-rule="evenodd" d="M99.516 156.027c-3.097 6.319-9.858 12.727-18.381 12.727-6.887 0-14.21-4.892-18.235-12.802l4.743-1.675s4.33 9.737 13.46 9.847l.212-.004c8.984-.257 13.246-9.843 13.246-9.843l4.955 1.75z" fill="#CAF1FF"/><path fill-rule="evenodd" clip-rule="evenodd" d="M96.795 137.032c0-4.905-3.982-8.887-8.887-8.887H74.179c-4.905 0-8.887 3.982-8.887 8.887h31.503z" fill="#CCC"/><path fill-rule="evenodd" clip-rule="evenodd" d="M67.359 151.992l-8.253 5.147 15.757 13.852 6.15-6.996-13.654-12.003zm27.503 0l8.252 5.147-15.757 13.852-6.15-6.996 13.655-12.003z" fill="#92E4FF"/></g><defs><clipPath id="clip0"><path fill="#fff" d="M0 0h240v240H0z"/></clipPath></defs></svg>
